X: 1
T: Rapupolkka
T: Crawdad polka
C: Otto Hotakainen
R: polka
B: Otto Hotakaisen Nuotikirja
%%slurgraces 1
M: 2/4
L: 1/16
K: G
|: "G"d^cd2 "C"=cBc2 | "G"~B2.G2 GDGB | "D"~A2.F2 FDFA | "G" BAGF "(D7)"GABc \
|  "G"d^cd2 "C"=cBc2 | "G"~B2.G2 G2B2 | "D" Adfe  dcBA | "G".G2B2     G4 :|
|: "G"B,2G,B, .D2B,D |     G2DG .B2GB | "D" d2Ad  AdcB | "C".d2c2 "Am"cBc2 \
|  "D"F2DF    .A2FA  |     c2Ac  f2ef |    .a2a2  agfe | "G" dcB2     BAG2 |
|  "G"B,2G,B, .D2B,D |     G2DG .B2GB | "D" d2Ad  AdcB | "C" d2c2 "Am"cBAB \
|  "D"cBAB     cdA2  | "G" BAGA  Bcd2 | "D" dAFA  dAFA | "G".G2B2     G4 :|
